icons/tango/actions/format-text-bold.svg

<?xml version="1.0" encoding="UTF-8" standalone="no"?><!-- Created with Inkscape (http://www.inkscape.org/) --><svg xmlns:dc="http://purl.org/dc/elements/1.1/" xmlns:cc="http://creativecommons.org/ns#" xmlns:rdf="http://www.w3.org/1999/02/22-rdf-syntax-ns#" xmlns:svg="http://www.w3.org/2000/svg" xmlns="http://www.w3.org/2000/svg" xmlns:xlink="http://www.w3.org/1999/xlink" xmlns:sodipodi="http://sodipodi.sourceforge.net/DTD/sodipodi-0.dtd" xmlns:inkscape="http://www.inkscape.org/namespaces/inkscape" width="48" height="48" id="svg1306" version="1.0"><defs><linearGradient id="3" gradientUnits="userSpaceOnUse" x1="29.12" y1="33.439" x2="14.296" y2="6.346"><stop stop-color="#497fc6"/><stop offset="1" stop-color="#90b3d9"/></linearGradient><linearGradient id="2" gradientUnits="userSpaceOnUse" x1="19.988" y1="34.983" x2="19.988" y2="6.434"><stop stop-color="#2a5387"/><stop offset="1" stop-color="#3465a4"/></linearGradient><linearGradient id="1" gradientUnits="userSpaceOnUse" x1="19.892" y1="13.11" x2="31.857" y2="69.781"><stop stop-color="#fff"/><stop offset="1" stop-color="#b3b3b3" stop-opacity="0"/></linearGradient><linearGradient id="0" gradientUnits="userSpaceOnUse" x1="24" y1="23.5" x2="25.674" y2="6"><stop stop-color="#fff"/><stop offset="1" stop-color="#fff" stop-opacity="0"/></linearGradient><radialGradient id="4" gradientUnits="userSpaceOnUse" gradientTransform="matrix(1 0 0 .53672 0 16.873)" cx="24.837" cy="36.421" fx="24.837" fy="36.421" r="15.645"><stop/><stop offset="1" stop-opacity="0"/></radialGradient></defs><sodipodi:namedview pagecolor="#ffffff" bordercolor="#666666" borderopacity="0.18039216" showgrid="false" showguides="false" stroke="#204a87" fill="#2e3436" showborder="true"><sodipodi:guide orientation="vertical" position="14.406922"/><sodipodi:guide orientation="horizontal" position="41.565351"/><sodipodi:guide orientation="vertical" position="29.03324"/><sodipodi:guide orientation="vertical" position="19.964923"/><sodipodi:guide orientation="horizontal" position="31.739108"/><sodipodi:guide orientation="horizontal" position="28.59445"/><sodipodi:guide orientation="vertical" position="24.133423"/><sodipodi:guide orientation="horizontal" position="14.56111"/><inkscape:grid type="xygrid" originx="0px" originy="0px" spacingx="0.5px" spacingy="0.5px" color="#00f" empcolor="#0000ff" opacity=".2" empopacity="0.4" empspacing="2"/></sodipodi:namedview><metadata><rdf:RDF><cc:Work><dc:format>image/svg+xml</dc:format><dc:type rdf:resource="http://purl.org/dc/dcmitype/StillImage"/><dc:title>Bold</dc:title><dc:date>2006-01-04</dc:date><dc:creator><cc:Agent><dc:title>Lapo Calamandrei</dc:title></cc:Agent></dc:creator><dc:source>http://tango-project.org</dc:source><dc:subject><rdf:Bag><rdf:li>text</rdf:li><rdf:li>a</rdf:li><rdf:li>bold</rdf:li><rdf:li>write</rdf:li><rdf:li>letter</rdf:li></rdf:Bag></dc:subject><cc:license rdf:resource="http://creativecommons.org/licenses/publicdomain/"/><dc:contributor><cc:Agent><dc:title>Andreas Nilsson</dc:title></cc:Agent></dc:contributor></cc:Work><cc:License rdf:about="http://creativecommons.org/licenses/publicdomain/"><cc:permits rdf:resource="http://creativecommons.org/ns#Reproduction"/><cc:permits rdf:resource="http://creativecommons.org/ns#Distribution"/><cc:permits rdf:resource="http://creativecommons.org/ns#DerivativeWorks"/></cc:License></rdf:RDF></metadata><path d="M40.481863 36.421127A15.644737 8.396894 0 1 1 9.192389 36.421127 15.644737 8.396894 0 1 1 40.481863 36.421127" transform="matrix(1.47014 0 0 .53547-12.764 20.915)" marker="none" opacity=".2" color="#000" fill-rule="evenodd" stroke-miterlimit="10" fill="url(#4)"/><g transform="translate(0 4)"><path d="m18 .5l-15 37h10l2.224-6h17.508l2.268 6h10l-15-37h-3-6-3zm6 8.5l5.594 14.5h-11.188l5.594-14.5z" fill="url(#3)" fill-rule="evenodd" stroke="url(#2)"/><g fill="none"><path d="m4.463 36.5l14.235-35h10.647l14.218 35h-7.887l-2.177-6h-19l-2.235 6h-7.802z" font-family="Bitstream Vera Sans" opacity=".7" text-align="start" font-weight="bold" line-height="125%" stroke="url(#1)" font-size="54.869"/><path d="m16.881 24.5h14.237l-7.119-18-7.119 18z" opacity=".7" fill-rule="evenodd" stroke="url(#0)"/></g></g></svg>

<?xml version="1.0" encoding="UTF-8" standalone="no"?>
<!-- Created with Inkscape (http://www.inkscape.org/) -->
<svg
   xmlns:dc="http://purl.org/dc/elements/1.1/"
   xmlns:cc="http://creativecommons.org/ns#"
   xmlns:rdf="http://www.w3.org/1999/02/22-rdf-syntax-ns#"
   xmlns:svg="http://www.w3.org/2000/svg"
   xmlns="http://www.w3.org/2000/svg"
   xmlns:xlink="http://www.w3.org/1999/xlink"
   xmlns:sodipodi="http://sodipodi.sourceforge.net/DTD/sodipodi-0.dtd"
   xmlns:inkscape="http://www.inkscape.org/namespaces/inkscape"
   width="48"
   height="48"
   id="svg1306"
   sodipodi:version="0.32"
   inkscape:version="0.46"
   sodipodi:docbase="/home/jimmac/src/cvs/tango-icon-theme/scalable/actions"
   sodipodi:docname="format-text-bold.svg"
   version="1.0"
   inkscape:output_extension="org.inkscape.output.svg.inkscape">
  <defs
     id="defs1308">
    <inkscape:perspective
       sodipodi:type="inkscape:persp3d"
       inkscape:vp_x="0 : 24 : 1"
       inkscape:vp_y="0 : 1000 : 0"
       inkscape:vp_z="48 : 24 : 1"
       inkscape:persp3d-origin="24 : 16 : 1"
       id="perspective46" />
    <linearGradient
       inkscape:collect="always"
       id="linearGradient2288">
      <stop
         style="stop-color:#000000;stop-opacity:1;"
         offset="0"
         id="stop2290" />
      <stop
         style="stop-color:#000000;stop-opacity:0;"
         offset="1"
         id="stop2292" />
    </linearGradient>
    <linearGradient
       id="linearGradient2243">
      <stop
         id="stop2245"
         offset="0"
         style="stop-color:#2a5387;stop-opacity:1" />
      <stop
         id="stop2247"
         offset="1"
         style="stop-color:#3465a4;stop-opacity:1;" />
    </linearGradient>
    <linearGradient
       inkscape:collect="always"
       id="linearGradient2233">
      <stop
         style="stop-color:#ffffff;stop-opacity:1;"
         offset="0"
         id="stop2235" />
      <stop
         style="stop-color:#ffffff;stop-opacity:0;"
         offset="1"
         id="stop2237" />
    </linearGradient>
    <linearGradient
       id="linearGradient3682">
      <stop
         style="stop-color:#497fc6;stop-opacity:1;"
         offset="0"
         id="stop3684" />
      <stop
         style="stop-color:#90b3d9;stop-opacity:1;"
         offset="1"
         id="stop3686" />
    </linearGradient>
    <linearGradient
       id="linearGradient2834">
      <stop
         style="stop-color:#ffffff;stop-opacity:1;"
         offset="0"
         id="stop2836" />
      <stop
         style="stop-color:#b3b3b3;stop-opacity:0.0000000;"
         offset="1.0000000"
         id="stop2838" />
    </linearGradient>
    <linearGradient
       inkscape:collect="always"
       id="linearGradient8662">
      <stop
         style="stop-color:#000000;stop-opacity:1;"
         offset="0"
         id="stop8664" />
      <stop
         style="stop-color:#000000;stop-opacity:0;"
         offset="1"
         id="stop8666" />
    </linearGradient>
    <linearGradient
       inkscape:collect="always"
       xlink:href="#linearGradient3682"
       id="linearGradient2475"
       gradientUnits="userSpaceOnUse"
       x1="29.122221"
       y1="33.438889"
       x2="14.296363"
       y2="6.3463993" />
    <linearGradient
       inkscape:collect="always"
       xlink:href="#linearGradient2243"
       id="linearGradient2477"
       gradientUnits="userSpaceOnUse"
       x1="19.988434"
       y1="34.98325"
       x2="19.988434"
       y2="6.4341555" />
    <linearGradient
       inkscape:collect="always"
       xlink:href="#linearGradient2834"
       id="linearGradient2479"
       gradientUnits="userSpaceOnUse"
       gradientTransform="translate(0,-3)"
       x1="19.891792"
       y1="16.114628"
       x2="31.856716"
       y2="72.780548" />
    <linearGradient
       inkscape:collect="always"
       xlink:href="#linearGradient2233"
       id="linearGradient2481"
       gradientUnits="userSpaceOnUse"
       gradientTransform="translate(-1,-4)"
       x1="25"
       y1="27.5"
       x2="26.673967"
       y2="10" />
    <radialGradient
       inkscape:collect="always"
       xlink:href="#linearGradient8662"
       id="radialGradient2490"
       gradientUnits="userSpaceOnUse"
       gradientTransform="matrix(1,0,0,0.536723,3.750475e-14,16.87306)"
       cx="24.837126"
       cy="36.421127"
       fx="24.837126"
       fy="36.421127"
       r="15.644737" />
    <radialGradient
       inkscape:collect="always"
       xlink:href="#linearGradient8662"
       id="radialGradient2494"
       gradientUnits="userSpaceOnUse"
       gradientTransform="matrix(1,0,0,0.536723,6.419148e-15,16.87306)"
       cx="24.837126"
       cy="36.421127"
       fx="24.837126"
       fy="36.421127"
       r="15.644737" />
    <linearGradient
       inkscape:collect="always"
       xlink:href="#linearGradient2288"
       id="linearGradient2294"
       x1="24"
       y1="42.25"
       x2="24"
       y2="36.615528"
       gradientUnits="userSpaceOnUse"
       gradientTransform="matrix(0.97619,0,0,0.406377,0.571429,24.97647)" />
  </defs>
  <sodipodi:namedview
     id="base"
     pagecolor="#ffffff"
     bordercolor="#666666"
     borderopacity="0.18039216"
     inkscape:pageopacity="0.0"
     inkscape:pageshadow="2"
     inkscape:zoom="1"
     inkscape:cx="-116.87002"
     inkscape:cy="47.121576"
     inkscape:current-layer="layer5"
     showgrid="false"
     inkscape:grid-bbox="true"
     inkscape:document-units="px"
     showguides="false"
     inkscape:guide-bbox="true"
     inkscape:window-width="1044"
     inkscape:window-height="818"
     inkscape:window-x="390"
     inkscape:window-y="30"
     inkscape:grid-points="true"
     stroke="#204a87"
     fill="#2e3436"
     showborder="true"
     inkscape:showpageshadow="false">
    <sodipodi:guide
       orientation="vertical"
       position="14.406922"
       id="guide2257" />
    <sodipodi:guide
       orientation="horizontal"
       position="41.565351"
       id="guide2259" />
    <sodipodi:guide
       orientation="vertical"
       position="29.03324"
       id="guide2261" />
    <sodipodi:guide
       orientation="vertical"
       position="19.964923"
       id="guide2265" />
    <sodipodi:guide
       orientation="horizontal"
       position="31.739108"
       id="guide2267" />
    <sodipodi:guide
       orientation="horizontal"
       position="28.59445"
       id="guide2269" />
    <sodipodi:guide
       orientation="vertical"
       position="24.133423"
       id="guide2271" />
    <sodipodi:guide
       orientation="horizontal"
       position="14.56111"
       id="guide2266" />
    <inkscape:grid
       id="GridFromPre046Settings"
       type="xygrid"
       originx="0px"
       originy="0px"
       spacingx="0.5px"
       spacingy="0.5px"
       color="#0000ff"
       empcolor="#0000ff"
       opacity="0.2"
       empopacity="0.4"
       empspacing="2" />
  </sodipodi:namedview>
  <metadata
     id="metadata1311">
    <rdf:RDF>
      <cc:Work
         rdf:about="">
        <dc:format>image/svg+xml</dc:format>
        <dc:type
           rdf:resource="http://purl.org/dc/dcmitype/StillImage" />
        <dc:title>Bold</dc:title>
        <dc:date>2006-01-04</dc:date>
        <dc:creator>
          <cc:Agent>
            <dc:title>Lapo Calamandrei</dc:title>
          </cc:Agent>
        </dc:creator>
        <dc:source>http://tango-project.org</dc:source>
        <dc:subject>
          <rdf:Bag>
            <rdf:li>text</rdf:li>
            <rdf:li>a</rdf:li>
            <rdf:li>bold</rdf:li>
            <rdf:li>write</rdf:li>
            <rdf:li>letter</rdf:li>
          </rdf:Bag>
        </dc:subject>
        <cc:license
           rdf:resource="http://creativecommons.org/licenses/publicdomain/" />
        <dc:contributor>
          <cc:Agent>
            <dc:title>Andreas Nilsson</dc:title>
          </cc:Agent>
        </dc:contributor>
      </cc:Work>
      <cc:License
         rdf:about="http://creativecommons.org/licenses/publicdomain/">
        <cc:permits
           rdf:resource="http://creativecommons.org/ns#Reproduction" />
        <cc:permits
           rdf:resource="http://creativecommons.org/ns#Distribution" />
        <cc:permits
           rdf:resource="http://creativecommons.org/ns#DerivativeWorks" />
      </cc:License>
    </rdf:RDF>
  </metadata>
  <g
     inkscape:groupmode="layer"
     id="layer5"
     inkscape:label="Shadow"
     style="display:inline">
    <path
       sodipodi:type="arc"
       style="opacity:0.2;color:#000000;fill:url(#radialGradient2494);fill-opacity:1;fill-rule:evenodd;stroke:none;stroke-width:1;stroke-linecap:butt;stroke-linejoin:miter;marker:none;marker-start:none;marker-mid:none;marker-end:none;stroke-miterlimit:10;stroke-dasharray:none;stroke-dashoffset:0;stroke-opacity:1;visibility:visible;display:inline;overflow:visible"
       id="path2492"
       sodipodi:cx="24.837126"
       sodipodi:cy="36.421127"
       sodipodi:rx="15.644737"
       sodipodi:ry="8.3968935"
       d="M 40.481863 36.421127 A 15.644737 8.3968935 0 1 1  9.1923885,36.421127 A 15.644737 8.3968935 0 1 1  40.481863 36.421127 z"
       transform="matrix(1.470144,0,0,0.535474,-12.76416,20.91534)"
       inkscape:r_cx="true"
       inkscape:r_cy="true" />
  </g>
  <g
     inkscape:groupmode="layer"
     id="layer4"
     inkscape:label="A"
     style="display:inline">
    <g
       id="g2464"
       transform="translate(0,4)">
      <path
         id="path2277"
         d="M 18,0.5 L 3,37.5 L 13,37.5 L 15.224112,31.5 L 32.731694,31.5 L 35,37.5 L 45,37.5 L 30,0.5 L 27,0.5 L 21,0.5 L 18,0.5 z M 24,9 L 29.59375,23.5 L 18.40625,23.5 L 24,9 z "
         style="fill:url(#linearGradient2475);fill-opacity:1;fill-rule:evenodd;stroke:url(#linearGradient2477);stroke-width:1;stroke-linecap:butt;stroke-linejoin:miter;stroke-miterlimit:4;stroke-opacity:1"
         sodipodi:nodetypes="ccccccccccccccc" />
      <path
         style="font-size:54.8693924px;font-style:normal;font-variant:normal;font-weight:bold;font-stretch:normal;text-align:start;line-height:125%;writing-mode:lr-tb;text-anchor:start;opacity:0.7;fill:none;fill-opacity:1;stroke:url(#linearGradient2479);stroke-width:1;stroke-linecap:butt;stroke-linejoin:miter;stroke-miterlimit:4;stroke-dasharray:none;stroke-opacity:1;display:inline;font-family:Bitstream Vera Sans"
         d="M 4.4634342,36.5 L 18.698561,1.5 L 29.345564,1.5 L 43.563927,36.5 L 35.676777,36.5 L 33.5,30.5 L 14.5,30.5 L 12.265165,36.5 L 4.4634342,36.5 z "
         id="path2304"
         sodipodi:nodetypes="ccccccccc" />
      <path
         sodipodi:nodetypes="cccc"
         id="path2306"
         d="M 16.881282,24.5 L 31.118718,24.5 L 24,6.5 L 16.881282,24.5 z "
         style="opacity:0.7;fill:none;fill-opacity:1;fill-rule:evenodd;stroke:url(#linearGradient2481);stroke-width:1;stroke-linecap:butt;stroke-linejoin:miter;stroke-miterlimit:4;stroke-dasharray:none;stroke-opacity:1;display:inline" />
    </g>
  </g>
</svg>
